X:157
T:Scotsman. RHu.153
S:R.Hughes MS,1823,Whitchurch,Shrops.
A:Whitchurch, Shropshire
Z:Tony Weatherall 2006
M:2/4
L:1/8
Q:1/4=100
R:Country Dance
K:G
GG BB|d2e/d/c/B/|AG cB|ed fg|!
GG BB|d2e/d/c/B/|AedF|G2G2:|!
|:B2GB|d2Bd|b/a/g/f/ e/d/c/B/|c2Ac|\
f2df|!
a/g/f/e/ d/c/B/A/|GB2c|d2e/d/c/B/|\
AedF|G2G2:|

